X:69
T:Sandy MacIntyre's Trip To Boston
C:John Campbell
S:Bernie Waugh
R:Reel
M:4/4
L:1/8
K:A
|:F|\
"A"E2CE A,ECE|Acef "Cm"ecce|"Bm"f2af "A"ecAc|"G"dBcA "E7"BFFA|
"A"E2CE A,ECE|Acef ecce|"F#m"f2af "D"ecBc|"E7"dfec "A"A/A/AA:|
|:f|\
"A"eAc/c/c ecBc|ABce "F#m"f2af|"A"eAc/c/c ecBc|"Bm"dfec "E"B3f|
"A"eAc/c/c ecBc|ABce "C#7"f2fg|"D"agfe fgaf|"E"ecBc "A"A3:|

